static/assets/template/assets/img/icons/essential/detailed/Rings.svg

<svg height="149" viewBox="0 0 146 149" width="146" xmlns="http://www.w3.org/2000/svg"><g fill="none" fill-rule="evenodd" transform="translate(1 2)"><g fill-rule="nonzero"><path d="m82.6 122.2c-7.4 13.4-21.7 22.5-38.1 22.5-24 0-43.6-19.5-43.6-43.6 0-24 19.5-43.6 43.6-43.6 5.5 0 10.7 1 15.5 2.9m-3.9 15.6c-3.5-1.6-7.5-2.5-11.6-2.5-15.3 0-27.7 12.4-27.7 27.7s12.4 27.7 27.7 27.7c10.7 0 20.1-6.1 24.7-15.1"/><path d="m80.6 123.3c-7.1 12.8-20.7 21.4-36.3 21.4-22.8 0-41.4-18.6-41.4-41.4s18.6-41.4 41.4-41.4c5.2 0 10.2 1 14.8 2.7m-2.1 11.6c-3.8-1.8-8-2.7-12.5-2.7-16.4 0-29.8 13.4-29.8 29.8s13.4 29.8 29.8 29.8c11.5 0 21.6-6.6 26.5-16.2"/><path d="m99.2 125.5c-24 0-43.6-19.5-43.6-43.6s19.5-43.6 43.6-43.6 43.6 19.5 43.6 43.6-19.6 43.6-43.6 43.6zm0-71.3c-15.3 0-27.7 12.4-27.7 27.7s12.4 27.7 27.7 27.7 27.7-12.4 27.7-27.7-12.4-27.7-27.7-27.7z"/><path d="m136.4 68.7c-6.3-14.3-20.6-24.4-37.2-24.4-22.4 0-40.6 18.2-40.6 40.6 0 3.1.4 6.2 1 9.1 4.2 17.9 20.3 31.4 39.5 31.4 22.4 0 40.6-18.2 40.6-40.6.1-5.6-1.1-11.1-3.3-16.1zm-7.1 15.6c0 16.6-13.5 30.1-30.1 30.1-14.6 0-26.8-10.4-29.5-24.2-.4-1.9-.6-3.9-.6-5.9 0-16.6 13.5-30.1 30.1-30.1 12 0 22.3 7 27.2 17.2 1.9 3.9 2.9 8.3 2.9 12.9z" fill="#8fc0ff"/><path d="m136.4 68.7c-6.3-14.3-20.6-24.4-37.2-24.4-22.4 0-40.6 18.2-40.6 40.6 0 3.1.4 6.2 1 9.1 6.3 14.3 20.6 24.4 37.2 24.4 22.4 0 40.6-18.2 40.6-40.6.1-3-.3-6.1-1-9.1zm-37 42.2c-13.7 0-25.2-9.8-27.8-22.8-.9-5.8-.5-11.3 2-16.9 3.5-7.7 13.7-16.7 23.6-17 13.7-.3 24.1 8.2 27.8 16.2 1.8 3.7 2.7 7.8 2.7 12.1 0 15.7-12.7 28.4-28.3 28.4z" fill="#bad8ff"/></g><path d="m39.1 57.9c1.8-.2 3.6-.3 5.4-.3 5.5 0 10.7 1 15.5 2.9m-33.1.8c.8-.4 1.7-.7 2.5-1m53.2 61.9c-7.4 13.4-21.7 22.5-38.1 22.5-24 0-43.6-19.5-43.6-43.6 0-13.2 5.9-25 15.1-33m50.5 49.8c1-1.3 1.9-2.7 2.6-4.1m-13-37.8c-3.5-1.6-7.5-2.5-11.6-2.5-15.3 0-27.7 12.4-27.7 27.7s12.4 27.7 27.7 27.7c5.8 0 11.2-1.8 15.7-4.9" stroke-linecap="round" stroke-linejoin="round" stroke-width="3"/><path d="m134.2 107.9c-7.9 10.7-20.7 17.6-35 17.6-24 0-43.6-19.5-43.6-43.6 0-17.7 10.6-32.9 25.7-39.7m16.9-3.8h1.1c24 0 43.6 19.5 43.6 43.6 0 3.4-.4 6.8-1.2 10m-19.9 6c3.2-4.5 5.1-10.1 5.1-16.1 0-15.3-12.4-27.7-27.7-27.7s-27.7 12.4-27.7 27.7 12.4 27.7 27.7 27.7c2.3 0 4.5-.3 6.7-.8m10.9-5.4c0-.1 0-.1 0 0" stroke-linecap="round" stroke-linejoin="round" stroke-width="3"/><path d="m44.5 57.6v-57.6" stroke-linecap="round" stroke-linejoin="round" stroke-width="3"/><path d="m98.2 38.4v-38.4" stroke-linecap="round" stroke-linejoin="round" stroke-width="3"/></g></svg>

<?xml version="1.0" encoding="UTF-8"?>
<svg width="146px" height="149px" viewBox="0 0 146 149" version="1.1" xmlns="http://www.w3.org/2000/svg" xmlns:xlink="http://www.w3.org/1999/xlink">
    <!-- Generator: Sketch 51.2 (57519) - http://www.bohemiancoding.com/sketch -->
    <title>Rings</title>
    <desc>Created with Sketch.</desc>
    <defs></defs>
    <g id="Page-1" stroke="none" stroke-width="1" fill="none" fill-rule="evenodd">
        <g id="Rings" transform="translate(1.000000, 2.000000)">
            <path d="M82.6,122.2 C75.2,135.6 60.9,144.7 44.5,144.7 C20.5,144.7 0.9,125.2 0.9,101.1 C0.9,77.1 20.4,57.5 44.5,57.5 C50,57.5 55.2,58.5 60,60.4 M56.1,76 C52.6,74.4 48.6,73.5 44.5,73.5 C29.2,73.5 16.8,85.9 16.8,101.2 C16.8,116.5 29.2,128.9 44.5,128.9 C55.2,128.9 64.6,122.8 69.2,113.8" id="Shape" class="fill-neutral" fill-rule="nonzero"></path>
            <path d="M80.6,123.3 C73.5,136.1 59.9,144.7 44.3,144.7 C21.5,144.7 2.9,126.1 2.9,103.3 C2.9,80.5 21.5,61.9 44.3,61.9 C49.5,61.9 54.5,62.9 59.1,64.6 M57,76.2 C53.2,74.4 49,73.5 44.5,73.5 C28.1,73.5 14.7,86.9 14.7,103.3 C14.7,119.7 28.1,133.1 44.5,133.1 C56,133.1 66.1,126.5 71,116.9" id="Shape" class="fill-primary-400" fill-rule="nonzero"></path>
            <path d="M99.2,125.5 C75.2,125.5 55.6,106 55.6,81.9 C55.6,57.8 75.1,38.3 99.2,38.3 C123.3,38.3 142.8,57.8 142.8,81.9 C142.8,106 123.2,125.5 99.2,125.5 Z M99.2,54.2 C83.9,54.2 71.5,66.6 71.5,81.9 C71.5,97.2 83.9,109.6 99.2,109.6 C114.5,109.6 126.9,97.2 126.9,81.9 C126.9,66.6 114.5,54.2 99.2,54.2 Z" id="Shape" class="fill-neutral" fill-rule="nonzero"></path>
            <path d="M136.4,68.7 C130.1,54.4 115.8,44.3 99.2,44.3 C76.8,44.3 58.6,62.5 58.6,84.9 C58.6,88 59,91.1 59.6,94 C59.6,94 59.6,94 59.6,94 C63.8,111.9 79.9,125.4 99.1,125.4 C121.5,125.4 139.7,107.2 139.7,84.8 C139.8,79.2 138.6,73.7 136.4,68.7 Z M129.3,84.3 C129.3,100.9 115.8,114.4 99.2,114.4 C84.6,114.4 72.4,104 69.7,90.2 C69.3,88.3 69.1,86.3 69.1,84.3 C69.1,67.7 82.6,54.2 99.2,54.2 C111.2,54.2 121.5,61.2 126.4,71.4 C128.3,75.3 129.3,79.7 129.3,84.3 Z" id="Shape" fill="#8FC0FF" fill-rule="nonzero"></path>
            <path d="M136.4,68.7 C130.1,54.4 115.8,44.3 99.2,44.3 C76.8,44.3 58.6,62.5 58.6,84.9 C58.6,88 59,91.1 59.6,94 C59.6,94 59.6,94 59.6,94 C65.9,108.3 80.2,118.4 96.8,118.4 C119.2,118.4 137.4,100.2 137.4,77.8 C137.5,74.8 137.1,71.7 136.4,68.7 Z M99.4,110.9 C85.7,110.9 74.2,101.1 71.6,88.1 C70.7,82.3 71.1,76.8 73.6,71.2 C77.1,63.5 87.3,54.5 97.2,54.2 C110.9,53.9 121.3,62.4 125,70.4 C126.8,74.1 127.7,78.2 127.7,82.5 C127.7,98.2 115,110.9 99.4,110.9 Z" id="Shape" fill="#BAD8FF" fill-rule="nonzero"></path>
            <path d="M39.1,57.9 C40.9,57.7 42.7,57.6 44.5,57.6 C50,57.6 55.2,58.6 60,60.5 M26.9,61.3 C27.7,60.9 28.6,60.6 29.4,60.3 M82.6,122.2 C75.2,135.6 60.9,144.7 44.5,144.7 C20.5,144.7 0.9,125.2 0.9,101.1 C0.9,87.9 6.8,76.1 16,68.1 M66.5,117.9 C67.5,116.6 68.4,115.2 69.1,113.8 M56.1,76 C52.6,74.4 48.6,73.5 44.5,73.5 C29.2,73.5 16.8,85.9 16.8,101.2 C16.8,116.5 29.2,128.9 44.5,128.9 C50.3,128.9 55.7,127.1 60.2,124" id="Shape" class="stroke-primary" stroke-width="3" stroke-linecap="round" stroke-linejoin="round"></path>
            <path d="M134.2,107.9 C126.3,118.6 113.5,125.5 99.2,125.5 C75.2,125.5 55.6,106 55.6,81.9 C55.6,64.2 66.2,49 81.3,42.2 M98.2,38.4 C98.6,38.4 98.9,38.4 99.3,38.4 C123.3,38.4 142.9,57.9 142.9,82 C142.9,85.4 142.5,88.8 141.7,92 M121.8,98 C125,93.5 126.9,87.9 126.9,81.9 C126.9,66.6 114.5,54.2 99.2,54.2 C83.9,54.2 71.5,66.6 71.5,81.9 C71.5,97.2 83.9,109.6 99.2,109.6 C101.5,109.6 103.7,109.3 105.9,108.8 M116.8,103.4 C116.8,103.3 116.8,103.3 116.8,103.4" id="Shape" class="stroke-primary" stroke-width="3" stroke-linecap="round" stroke-linejoin="round"></path>
            <path d="M44.5,57.6 L44.5,0" id="Shape" class="stroke-primary" stroke-width="3" stroke-linecap="round" stroke-linejoin="round"></path>
            <path d="M98.2,38.4 L98.2,0" id="Shape" class="stroke-primary" stroke-width="3" stroke-linecap="round" stroke-linejoin="round"></path>
        </g>
    </g>
</svg>
